styles/5/Numix-Circle/48x48/apps/mansa.svg

<?xml version="1.0" encoding="UTF-8" standalone="no"?>
<svg
   xmlns:dc="http://purl.org/dc/elements/1.1/"
   xmlns:cc="http://creativecommons.org/ns#"
   xmlns:rdf="http://www.w3.org/1999/02/22-rdf-syntax-ns#"
   xmlns:svg="http://www.w3.org/2000/svg"
   xmlns="http://www.w3.org/2000/svg"
   xmlns:sodipodi="http://sodipodi.sourceforge.net/DTD/sodipodi-0.dtd"
   xmlns:inkscape="http://www.inkscape.org/namespaces/inkscape"
   viewBox="0 0 48 48"
   id="svg2"
   version="1.1"
   inkscape:version="0.91 r"
   width="100%"
   height="100%"
   sodipodi:docname="mansa.svg">
  <metadata
     id="metadata65">
    <rdf:RDF>
      <cc:Work
         rdf:about="">
        <dc:format>image/svg+xml</dc:format>
        <dc:type
           rdf:resource="http://purl.org/dc/dcmitype/StillImage" />
      </cc:Work>
    </rdf:RDF>
  </metadata>
  <sodipodi:namedview
     pagecolor="#ffffff"
     bordercolor="#666666"
     borderopacity="1"
     objecttolerance="10"
     gridtolerance="10"
     guidetolerance="10"
     inkscape:pageopacity="0"
     inkscape:pageshadow="2"
     inkscape:window-width="1280"
     inkscape:window-height="998"
     id="namedview63"
     showgrid="true"
     inkscape:zoom="13.906433"
     inkscape:cx="29.455985"
     inkscape:cy="19.137465"
     inkscape:window-x="0"
     inkscape:window-y="0"
     inkscape:window-maximized="1"
     inkscape:current-layer="svg2">
    <inkscape:grid
       type="xygrid"
       id="grid3061" />
  </sodipodi:namedview>
  <defs
     id="defs4">
    <linearGradient
       id="linearGradient3764"
       x1="1"
       x2="47"
       gradientUnits="userSpaceOnUse"
       gradientTransform="matrix(0,-1,1,0,-1.5e-6,47.999998)">
      <stop
         stop-color="#b94f33"
         stop-opacity="1"
         id="stop7" />
      <stop
         offset="1"
         stop-color="#c85637"
         stop-opacity="1"
         id="stop9" />
    </linearGradient>
  </defs>
  <g
     id="g21">
    <path
       d="m 36.31 5 c 5.859 4.062 9.688 10.831 9.688 18.5 c 0 12.426 -10.07 22.5 -22.5 22.5 c -7.669 0 -14.438 -3.828 -18.5 -9.688 c 1.037 1.822 2.306 3.499 3.781 4.969 c 4.085 3.712 9.514 5.969 15.469 5.969 c 12.703 0 23 -10.298 23 -23 c 0 -5.954 -2.256 -11.384 -5.969 -15.469 c -1.469 -1.475 -3.147 -2.744 -4.969 -3.781 z m 4.969 3.781 c 3.854 4.113 6.219 9.637 6.219 15.719 c 0 12.703 -10.297 23 -23 23 c -6.081 0 -11.606 -2.364 -15.719 -6.219 c 4.16 4.144 9.883 6.719 16.219 6.719 c 12.703 0 23 -10.298 23 -23 c 0 -6.335 -2.575 -12.06 -6.719 -16.219 z"
       opacity="0.05"
       id="path23" />
    <path
       d="m 41.28 8.781 c 3.712 4.085 5.969 9.514 5.969 15.469 c 0 12.703 -10.297 23 -23 23 c -5.954 0 -11.384 -2.256 -15.469 -5.969 c 4.113 3.854 9.637 6.219 15.719 6.219 c 12.703 0 23 -10.298 23 -23 c 0 -6.081 -2.364 -11.606 -6.219 -15.719 z"
       opacity="0.1"
       id="path25" />
    <path
       d="m 31.25 2.375 c 8.615 3.154 14.75 11.417 14.75 21.13 c 0 12.426 -10.07 22.5 -22.5 22.5 c -9.708 0 -17.971 -6.135 -21.12 -14.75 a 23 23 0 0 0 44.875 -7 a 23 23 0 0 0 -16 -21.875 z"
       opacity="0.2"
       id="path27" />
  </g>
  <g
     id="g29">
    <path
       d="m 24 1 c 12.703 0 23 10.297 23 23 c 0 12.703 -10.297 23 -23 23 -12.703 0 -23 -10.297 -23 -23 0 -12.703 10.297 -23 23 -23 z"
       fill="url(#linearGradient3764)"
       fill-opacity="1"
       id="path31" />
  </g>
  <g
     id="g33" />
  <g
     id="g59">
    <path
       d="m 40.03 7.531 c 3.712 4.084 5.969 9.514 5.969 15.469 0 12.703 -10.297 23 -23 23 c -5.954 0 -11.384 -2.256 -15.469 -5.969 4.178 4.291 10.01 6.969 16.469 6.969 c 12.703 0 23 -10.298 23 -23 0 -6.462 -2.677 -12.291 -6.969 -16.469 z"
       opacity="0.1"
       id="path61" />
  </g>
  <rect
     style="fill:#fffdf0;fill-opacity:1;stroke:none"
     id="rect3799"
     width="10.999998"
     height="3.9999745"
     x="14.000002"
     y="18" />
  <path
     style="fill:none;stroke:none"
     d="m 24.000002,17.5 -2.500001,1.5 1.500001,0 z"
     id="path3801"
     inkscape:connector-curvature="0" />
  <path
     style="fill:#000000;fill-opacity:0.10196078;stroke:none"
     d="m 28.125,14.999998 c -1.904011,0 -2.522056,1.50138 -3.5,3 l -9.125,0 c -1.385,0 -2.5,1.115001 -2.5,2.500001 l 0,0.999999 0,8.500001 0,1.5 0,0.875 L 13,32.5 c 0.0064,0.13867 0.0359,0.274096 0.0625,0.40625 0.119268,0.691079 0.513177,1.280983 1.09375,1.65625 0.27748,0.179355 0.597249,0.308611 0.9375,0.375 0.170125,0.03504 0.319348,0.0625 0.5,0.0625 l 18.812501,0 c 0.180652,0 0.329874,-0.02746 0.5,-0.0625 0.340249,-0.06639 0.660019,-0.195644 0.937499,-0.375 0.580571,-0.375267 0.974484,-0.965171 1.093752,-1.65625 0.02657,-0.132155 0.05609,-0.267577 0.0625,-0.40625 l 0,-0.125001 0,-0.875 0,-13.875 c 0,-1.461945 -1.148532,-2.625001 -2.593748,-2.625001 l -6.28125,0 z"
     id="rect3375"
     inkscape:connector-curvature="0" />
  <path
     inkscape:connector-curvature="0"
     style="fill:#f57c00;fill-opacity:1;stroke:none"
     d="M 14.5,16 C 13.115,16 12,17.115 12,18.5 l 0,9.5 23,0 0,-9.5 C 35,17.115 33.885,16 32.5,16 l -18,0 z"
     id="rect2987-2" />
  <path
     style="opacity:0.2;fill:#ffffff;fill-opacity:1;stroke:none"
     d="M 14.5,16 C 13.115,16 12,17.115 12,18.5 l 0,1 C 12,18.115 13.115,17 14.5,17 l 18.000001,0 C 33.885,17 35,18.115 35,19.5 l 0,-1 C 35,17.115 33.885,16 32.500001,16 L 14.5,16 z"
     id="rect3797"
     inkscape:connector-curvature="0" />
  <path
     style="fill:#ffb300;fill-opacity:1;stroke:none"
     d="m 14.608696,20 4.173913,0 c 5.739133,-0.527778 4.695653,-6 8.347827,-6 l 6.26087,0 c 1.445217,0 2.608693,1.176944 2.608693,2.63889 l 0,14.722223 C 35.999999,32.823055 34.836523,34 33.391306,34 l -18.78261,0 C 13.163479,34 12,32.823055 12,31.361113 l 0,-8.388888 C 12,21.388892 13.043478,20 14.608696,20 z"
     id="rect3776"
     inkscape:connector-curvature="0"
     sodipodi:nodetypes="cccsssssscc" />
  <path
     style="opacity:0.15;fill:#000000;fill-opacity:1;stroke:none"
     d="m 12,30.499999 0,1.000003 C 12,32.885 13.163479,34 14.608696,34 l 18.78261,0 c 1.445217,0 2.608693,-1.115 2.608693,-2.499998 l 0,-1.000003 c 0,1.385001 -1.163476,2.500002 -2.608693,2.500002 l -18.78261,0 C 13.163479,33.000001 12,31.885 12,30.499999 z"
     id="path3786"
     inkscape:connector-curvature="0"
     sodipodi:nodetypes="csssscssc" />
  <path
     id="path3845"
     d="m 16,24 0,1.09375 C 15.417241,25.23097 15,25.564516 15,26 c 0,0.435484 0.417241,0.76903 1,0.90625 L 16,31 l 1,0 0,-4.09375 C 17.582759,26.76903 18,26.435484 18,26 18,25.564516 17.582759,25.23097 17,25.09375 L 17,24 16,24 z m 3,0 0,4.09375 C 18.417241,28.23097 18,28.564516 18,29 c 0,0.435484 0.417241,0.76903 1,0.90625 L 19,31 l 1,0 0,-1.09375 C 20.582759,29.76903 21,29.435484 21,29 21,28.564516 20.582759,28.23097 20,28.09375 L 20,24 19,24 z m 3,0 0,1.09375 C 21.417241,25.23097 21,25.564516 21,26 c 0,0.435484 0.417241,0.76903 1,0.90625 L 22,31 l 1,0 0,-4.09375 C 23.569474,26.764367 24,26.42914 24,26 24,25.57086 23.569474,25.235633 23,25.09375 L 23,24 22,24 z"
     style="fill:#000000;fill-opacity:0.09803922;fill-rule:evenodd;stroke:none"
     inkscape:connector-curvature="0" />
  <path
     style="fill:#fff8e1;fill-opacity:1;fill-rule:evenodd;stroke:none"
     d="M 16 23 L 16 24.09375 C 15.417241 24.23097 15 24.564516 15 25 C 15 25.435484 15.417241 25.76903 16 25.90625 L 16 30 L 17 30 L 17 25.90625 C 17.582759 25.76903 18 25.435484 18 25 C 18 24.564516 17.582759 24.23097 17 24.09375 L 17 23 L 16 23 z M 19 23 L 19 27.09375 C 18.417241 27.23097 18 27.564516 18 28 C 18 28.435484 18.417241 28.76903 19 28.90625 L 19 30 L 20 30 L 20 28.90625 C 20.582759 28.76903 21 28.435484 21 28 C 21 27.564516 20.582759 27.23097 20 27.09375 L 20 23 L 19 23 z M 22 23 L 22 24.09375 C 21.417241 24.23097 21 24.564516 21 25 C 21 25.435484 21.417241 25.76903 22 25.90625 L 22 30 L 23 30 L 23 25.90625 C 23.569474 25.764367 24 25.42914 24 25 C 24 24.57086 23.569474 24.235633 23 24.09375 L 23 23 L 22 23 z "
     id="rect3064" />
</svg>

<svg xmlns="http://www.w3.org/2000/svg" viewBox="0 0 48 48">
 <defs>
  <linearGradient id="linearGradient3764" x1="1" x2="47" gradientUnits="userSpaceOnUse" gradientTransform="matrix(0,-1,1,0,-1.5e-6,47.999998)">
   <stop style="stop-color:#b94f33;stop-opacity:1"/>
   <stop offset="1" style="stop-color:#c85637;stop-opacity:1"/>
  </linearGradient>
 </defs>
 <g>
  <path d="m 36.31 5 c 5.859 4.062 9.688 10.831 9.688 18.5 c 0 12.426 -10.07 22.5 -22.5 22.5 c -7.669 0 -14.438 -3.828 -18.5 -9.688 c 1.037 1.822 2.306 3.499 3.781 4.969 c 4.085 3.712 9.514 5.969 15.469 5.969 c 12.703 0 23 -10.298 23 -23 c 0 -5.954 -2.256 -11.384 -5.969 -15.469 c -1.469 -1.475 -3.147 -2.744 -4.969 -3.781 z m 4.969 3.781 c 3.854 4.113 6.219 9.637 6.219 15.719 c 0 12.703 -10.297 23 -23 23 c -6.081 0 -11.606 -2.364 -15.719 -6.219 c 4.16 4.144 9.883 6.719 16.219 6.719 c 12.703 0 23 -10.298 23 -23 c 0 -6.335 -2.575 -12.06 -6.719 -16.219 z" style="opacity:0.05"/>
  <path d="m 41.28 8.781 c 3.712 4.085 5.969 9.514 5.969 15.469 c 0 12.703 -10.297 23 -23 23 c -5.954 0 -11.384 -2.256 -15.469 -5.969 c 4.113 3.854 9.637 6.219 15.719 6.219 c 12.703 0 23 -10.298 23 -23 c 0 -6.081 -2.364 -11.606 -6.219 -15.719 z" style="opacity:0.1"/>
  <path d="m 31.25 2.375 c 8.615 3.154 14.75 11.417 14.75 21.13 c 0 12.426 -10.07 22.5 -22.5 22.5 c -9.708 0 -17.971 -6.135 -21.12 -14.75 a 23 23 0 0 0 44.875 -7 a 23 23 0 0 0 -16 -21.875 z" style="opacity:0.2"/>
 </g>
 <g>
  <path d="m 24 1 c 12.703 0 23 10.297 23 23 c 0 12.703 -10.297 23 -23 23 -12.703 0 -23 -10.297 -23 -23 0 -12.703 10.297 -23 23 -23 z" style="fill:url(#linearGradient3764);fill-opacity:1"/>
 </g>
 <g>
  <path d="m 40.03 7.531 c 3.712 4.084 5.969 9.514 5.969 15.469 0 12.703 -10.297 23 -23 23 c -5.954 0 -11.384 -2.256 -15.469 -5.969 4.178 4.291 10.01 6.969 16.469 6.969 c 12.703 0 23 -10.298 23 -23 0 -6.462 -2.677 -12.291 -6.969 -16.469 z" style="opacity:0.1"/>
 </g>
 <rect width="11" height="4" x="14" y="18" style="fill:#fffdf0;fill-opacity:1;stroke:none"/>
 <path d="m 28.13 15 c -1.904 0 -2.522 1.501 -3.5 3 l -9.125 0 c -1.385 0 -2.5 1.115 -2.5 2.5 0 3.958 0 7.917 0 11.875 l 0 0.125 c 0.006 0.139 0.036 0.274 0.063 0.406 0.119 0.691 0.513 1.281 1.094 1.656 0.277 0.179 0.597 0.309 0.938 0.375 0.17 0.035 0.319 0.063 0.5 0.063 l 18.813 0 c 0.181 0 0.33 -0.027 0.5 -0.063 0.34 -0.066 0.66 -0.196 0.937 -0.375 0.581 -0.375 0.974 -0.965 1.094 -1.656 c 0.027 -0.132 0.056 -0.268 0.063 -0.406 l 0 -0.125 c 0 -4.917 0 -9.833 0 -14.75 c 0 -1.462 -1.149 -2.625 -2.594 -2.625 l -6.281 0 z" style="fill:#000;fill-opacity:0.102;stroke:none"/>
 <path d="M 14.5,16 C 13.115,16 12,17.115 12,18.5 l 0,9.5 23,0 0,-9.5 C 35,17.115 33.885,16 32.5,16 l -18,0 z" style="fill:#f57c00;fill-opacity:1;stroke:none"/>
 <path d="m 14.5 16 c -1.385 0 -2.5 1.115 -2.5 2.5 l 0 1 c 0 -1.385 1.115 -2.5 2.5 -2.5 l 18 0 c 1.385 0 2.5 1.115 2.5 2.5 l 0 -1 c 0 -1.385 -1.115 -2.5 -2.5 -2.5 l -18 0 z" style="fill:#fff;opacity:0.2;fill-opacity:1;stroke:none"/>
 <path d="m 14.609 20 4.174 0 c 5.739 -0.528 4.696 -6 8.348 -6 l 6.261 0 c 1.445 0 2.609 1.177 2.609 2.639 l 0 14.722 c 0 1.462 -1.163 2.639 -2.609 2.639 l -18.783 0 c -1.445 0 -2.609 -1.177 -2.609 -2.639 l 0 -8.389 c 0 -1.583 1.043 -2.972 2.609 -2.972 z" style="fill:#ffb300;fill-opacity:1;stroke:none"/>
 <path d="m 12 30.5 0 1 c 0 1.385 1.163 2.5 2.609 2.5 l 18.783 0 c 1.445 0 2.609 -1.115 2.609 -2.5 l 0 -1 c 0 1.385 -1.163 2.5 -2.609 2.5 l -18.783 0 c -1.445 0 -2.609 -1.115 -2.609 -2.5 z" style="fill:#000;opacity:0.15;fill-opacity:1;stroke:none"/>
 <path d="m 16 24 0 1.094 c -0.583 0.137 -1 0.471 -1 0.906 c 0 0.435 0.417 0.769 1 0.906 l 0 4.094 l 1 0 0 -4.094 c 0.583 -0.137 1 -0.471 1 -0.906 0 -0.435 -0.417 -0.769 -1 -0.906 l 0 -1.094 -1 0 z m 3 0 0 4.094 c -0.583 0.137 -1 0.471 -1 0.906 c 0 0.435 0.417 0.769 1 0.906 l 0 1.094 l 1 0 0 -1.094 c 0.583 -0.137 1 -0.471 1 -0.906 0 -0.435 -0.417 -0.769 -1 -0.906 l 0 -4.094 -1 0 z m 3 0 0 1.094 c -0.583 0.137 -1 0.471 -1 0.906 c 0 0.435 0.417 0.769 1 0.906 l 0 4.094 l 1 0 0 -4.094 c 0.569 -0.142 1 -0.477 1 -0.906 0 -0.429 -0.431 -0.764 -1 -0.906 l 0 -1.094 -1 0 z" style="fill:#000;fill-opacity:0.098;stroke:none;fill-rule:evenodd"/>
 <path d="m 16 23 l 0 1.094 c -0.583 0.137 -1 0.471 -1 0.906 c 0 0.435 0.417 0.769 1 0.906 l 0 4.094 l 1 0 l 0 -4.094 c 0.583 -0.137 1 -0.471 1 -0.906 c 0 -0.435 -0.417 -0.769 -1 -0.906 l 0 -1.094 l -1 0 z m 3 0 l 0 4.094 c -0.583 0.137 -1 0.471 -1 0.906 c 0 0.435 0.417 0.769 1 0.906 l 0 1.094 l 1 0 l 0 -1.094 c 0.583 -0.137 1 -0.471 1 -0.906 c 0 -0.435 -0.417 -0.769 -1 -0.906 l 0 -4.094 l -1 0 z m 3 0 l 0 1.094 c -0.583 0.137 -1 0.471 -1 0.906 c 0 0.435 0.417 0.769 1 0.906 l 0 4.094 l 1 0 l 0 -4.094 c 0.569 -0.142 1 -0.477 1 -0.906 c 0 -0.429 -0.431 -0.764 -1 -0.906 l 0 -1.094 l -1 0 z" style="fill:#fff8e1;fill-opacity:1;stroke:none;fill-rule:evenodd"/>
</svg>
